fs/shield_24_regular.svg

<svg viewBox="0 0 24 24" fill="none" xmlns="http://www.w3.org/2000/svg" height="1em" width="1em">
  <path d="M3 5.75C3 5.33579 3.33579 5 3.75 5C6.41341 5 9.00797 4.05652 11.55 2.15C11.8167 1.95 12.1833 1.95 12.45 2.15C14.992 4.05652 17.5866 5 20.25 5C20.6642 5 21 5.33579 21 5.75V11C21 16.0012 18.0424 19.6757 12.2749 21.9478C12.0982 22.0174 11.9018 22.0174 11.7251 21.9478C5.95756 19.6757 3 16.0012 3 11V5.75ZM4.5 6.47793V11C4.5 15.2556 6.95337 18.3789 12 20.4419C17.0466 18.3789 19.5 15.2556 19.5 11V6.47793C16.9227 6.32585 14.4192 5.38829 12 3.67782C9.58084 5.38829 7.07735 6.32585 4.5 6.47793Z" fill="#212121"/>
</svg>

<svg viewBox="0 0 24 24" fill="none" xmlns="http://www.w3.org/2000/svg" height="1em" width="1em">
  <path d="M3 5.75A.75.75 0 0 1 3.75 5c2.663 0 5.258-.943 7.8-2.85a.75.75 0 0 1 .9 0C14.992 4.057 17.587 5 20.25 5a.75.75 0 0 1 .75.75V11c0 5.001-2.958 8.676-8.725 10.948a.75.75 0 0 1-.55 0C5.958 19.676 3 16 3 11V5.75Zm1.5.728V11c0 4.256 2.453 7.379 7.5 9.442 5.047-2.063 7.5-5.186 7.5-9.442V6.478c-2.577-.152-5.08-1.09-7.5-2.8-2.42 1.71-4.923 2.648-7.5 2.8Z" fill="#212121"/>
</svg>
